X: 211
M: 2/2
L: 1/8
K: Gdor
|:\
c4 B4 | A6 B2 | G2B2 A2G2 | ^F4 F4 :|\
|:\
"4.F."d4 B4 | F6 F2 | G2F2 E2D2 | C4 [M:6/8] CB,C |
d_ed cBc | d_ed cBc | d3 G3 | !+!^F3 D3 |\

